svgs/1F9D4-1F3FD.svg

<svg xmlns="http://www.w3.org/2000/svg" xmlns:xlink="http://www.w3.org/1999/xlink" preserveAspectRatio="none" viewBox="0 0 72 72"><defs><path id="a" fill="#99674F" d="M106.9 66.05h-3.6v20.3q4.75 0 7.85-2.4 3.6-2.8 3.6-8.05 0-5.3-3.9-8.1l-3.95-1.75z"/><path id="b" fill="#99674F" d="M24.7 66.05h-3.65l-3.9 1.75q-3.95 2.8-3.95 8.1 0 5.25 3.6 8.05 3.1 2.4 7.9 2.4v-20.3z"/><path id="c" fill="#4C3734" d="M28.6 53.7q-.15.35.2.95.7 1.05 2.4 1.95 2.2 1.15 4.8 1.15 2.65 0 4.85-1.15 1.7-.9 2.4-1.95.35-.55.2-.95-.15-.35-.75-.35H29.4q-.6 0-.8.35z"/><path id="d" fill="#CC9970" d="M58.8 39.1q0-16.25-4.6-24.25Q48.7 5.4 36 5.4q-12.75 0-18.2 9.45-4.6 8-4.6 24.25 0 13.8 7.8 20.5 6 5.15 15 5.15 8.95 0 15-5.1 7.8-6.7 7.8-20.55z"/><path id="e" fill="#6D4C41" d="M56.4 35.75l.35-2.6H51.6q.5 12.35-4.05 16.75-4.65 4.55-15.2 1.4v18.15q1.35-.55 6.4-1.55 5.05-1 8-2.25Q53 63.1 55.4 59q1.6-2.85 1.5-6.85-.1-2.5-.6-5.75-.45-2.75-.35-5.6.05-2.25.45-5.05z"/><path id="f" fill="#6D4C41" d="M56.4 35.75l.35-2.6H51.6q.5 12.35-4.05 16.75-4.65 4.55-15.2 1.4v18.15q1.35-.55 6.4-1.55 5.05-1 8-2.25Q53 63.1 55.4 59q1.6-2.85 1.5-6.85-.1-2.5-.6-5.75-.45-2.75-.35-5.6.05-2.25.45-5.05z"/><path id="g" fill="#6D4C41" d="M31 93.1q-3.3 1.7-4.55 2-2.35.6-1.45 2.2.85 1.6 4.15 3.15 8.45 3.95 18.7 2.1 6.85-1.2 9.15-6.45.7-1.6.85-3.45l.05-1.5q-11.6-3.65-20.7-.7-2.55.8-6.2 2.65z"/><path id="h" fill="#6D4C41" d="M88.7 95.1q-1.25-.3-4.6-2-3.6-1.85-6.2-2.65-9.1-2.95-20.7.7l.05 1.5q.15 1.85.9 3.45 2.3 5.25 9.15 6.45 10.25 1.85 18.7-2.1 3.25-1.55 4.15-3.15.9-1.6-1.45-2.2z"/><path id="i" fill="#846358" d="M29.4 53.35q-.6 0-.8.35-.15.35.2.95.7 1.05 2.4 1.95 2.2 1.15 4.8 1.15 2.65 0 4.85-1.15 1.7-.9 2.4-1.95.35-.55.2-.95-.15-.35-.75-.35H29.4z"/><path id="j" fill="#99674F" d="M57.55 85.65q-2.6 0-5.7-.85-.6-.2-.9.25-.25.4 0 .85.65 1.1 2.25 2.15 2.05 1.25 4.35 1.25t4.35-1.25q1.6-1.05 2.25-2.15.25-.45 0-.85-.25-.4-.9-.25-3.1.85-5.7.85z"/><path id="k" fill="#444" d="M38.65 66q-2.3 0-3.9 1.95-1.6 1.9-1.6 4.65 0 2.7 1.6 4.65 1.6 1.9 3.9 1.9 2.25 0 3.85-1.9 1.6-1.95 1.6-4.65 0-2.75-1.6-4.7-1.6-1.95-3.85-1.9z"/><path id="l" fill="#444" d="M72.6 67.9Q71 69.85 71 72.6q0 2.7 1.6 4.65 1.6 1.9 3.9 1.9 2.25 0 3.85-1.9 1.6-1.95 1.6-4.65 0-2.75-1.6-4.65Q78.75 66 76.5 66q-2.3-.05-3.9 1.9z"/><path id="m" fill="#6D4C41" d="M61.95 22.55v-.75q-.4-5.9-5.4-10.25-6.8-6-20-6.2h-1q-13.25.2-20 6.2Q10.5 15.9 10.2 21.8q-.05.4-.05.75v13.8q.35-.3.9-.7.35-.35.75-.5l.5 6.5q6.45-8.65 8-17.95 4.3 2.85 7.85 4.05 3.55 1.15 7.4 1.1h1q6.35-.05 11.65-.65l3.85-.4q.1 0 .2.05l7.5 13.7.55-6.3q.35.05.75.35.6.45.9.75v-13.8z"/></defs><use transform="matrix(.5329 0 0 .5329 1.9 -.7)" xlink:href="#a"/><use transform="matrix(.5329 0 0 .5329 1.9 -.7)" xlink:href="#b"/><use xlink:href="#c"/><use xlink:href="#d"/><use transform="matrix(1.01425 0 0 1 3.2 0)" xlink:href="#e"/><use transform="matrix(-1.01425 0 0 1 68.8 0)" xlink:href="#f"/><use transform="matrix(.56248 0 0 .56248 3.65 0)" xlink:href="#g"/><use transform="matrix(.56248 0 0 .56248 3.65 0)" xlink:href="#h"/><use xlink:href="#i"/><use transform="translate(3.65) scale(.5625)" xlink:href="#j"/><use transform="translate(3.65) scale(.5625)" xlink:href="#k"/><use transform="translate(3.65) scale(.5625)" xlink:href="#l"/><use xlink:href="#m"/></svg>

<svg xmlns="http://www.w3.org/2000/svg" version="1.1" xmlns:xlink="http://www.w3.org/1999/xlink" preserveAspectRatio="none" x="0px" y="0px" width="72px" height="72px" viewBox="0 0 72 72">
<defs>
<g id="Layer0_0_MEMBER_0_MEMBER_0_MEMBER_0_FILL">
<path fill="#99674F" stroke="none" d="
M 106.9 66.05
L 103.3 66.05 103.3 86.35
Q 108.05 86.35 111.15 83.95 114.75 81.15 114.75 75.9 114.75 70.6 110.85 67.8
L 106.9 66.05 Z"/>
</g>

<g id="Layer0_0_MEMBER_0_MEMBER_0_MEMBER_1_FILL">
<path fill="#99674F" stroke="none" d="
M 24.7 66.05
L 21.05 66.05 17.15 67.8
Q 13.2 70.6 13.2 75.9 13.2 81.15 16.8 83.95 19.9 86.35 24.7 86.35
L 24.7 66.05 Z"/>
</g>

<g id="Layer0_0_MEMBER_0_MEMBER_1_FILL">
<path fill="#4C3734" stroke="none" d="
M 28.6 53.7
Q 28.45 54.05 28.8 54.65 29.5 55.7 31.2 56.6 33.4 57.75 36 57.75 38.65 57.75 40.85 56.6 42.55 55.7 43.25 54.65 43.6 54.1 43.45 53.7 43.3 53.35 42.7 53.35
L 29.4 53.35
Q 28.8 53.35 28.6 53.7 Z"/>
</g>

<g id="Layer0_0_MEMBER_0_MEMBER_2_FILL">
<path fill="#CC9970" stroke="none" d="
M 58.8 39.1
Q 58.8 22.85 54.2 14.85 48.7 5.4 36 5.4 23.25 5.4 17.8 14.85 13.2 22.85 13.2 39.1 13.2 52.9 21 59.6 27 64.75 36 64.75 44.95 64.75 51 59.65 58.8 52.95 58.8 39.1 Z"/>
</g>

<g id="Layer0_0_MEMBER_0_MEMBER_3_MEMBER_0_FILL">
<path fill="#6D4C41" stroke="none" d="
M 56.4 35.75
L 56.75 33.15 51.6 33.15
Q 52.1 45.5 47.55 49.9 42.9 54.45 32.35 51.3
L 32.35 69.45
Q 33.7 68.9 38.75 67.9 43.8 66.9 46.75 65.65 53 63.1 55.4 59 57 56.15 56.9 52.15 56.8 49.65 56.3 46.4 55.85 43.65 55.95 40.8 56 38.55 56.4 35.75 Z"/>
</g>

<g id="Layer0_0_MEMBER_0_MEMBER_3_MEMBER_1_FILL">
<path fill="#6D4C41" stroke="none" d="
M 56.4 35.75
L 56.75 33.15 51.6 33.15
Q 52.1 45.5 47.55 49.9 42.9 54.45 32.35 51.3
L 32.35 69.45
Q 33.7 68.9 38.75 67.9 43.8 66.9 46.75 65.65 53 63.1 55.4 59 57 56.15 56.9 52.15 56.8 49.65 56.3 46.4 55.85 43.65 55.95 40.8 56 38.55 56.4 35.75 Z"/>
</g>

<g id="Layer0_0_MEMBER_0_MEMBER_4_MEMBER_0_FILL">
<path fill="#6D4C41" stroke="none" d="
M 31 93.1
Q 27.7 94.8 26.45 95.1 24.1 95.7 25 97.3 25.85 98.9 29.15 100.45 37.6 104.4 47.85 102.55 54.7 101.35 57 96.1 57.7 94.5 57.85 92.65
L 57.9 91.15
Q 46.3 87.5 37.2 90.45 34.65 91.25 31 93.1 Z"/>
</g>

<g id="Layer0_0_MEMBER_0_MEMBER_4_MEMBER_1_FILL">
<path fill="#6D4C41" stroke="none" d="
M 88.7 95.1
Q 87.45 94.8 84.1 93.1 80.5 91.25 77.9 90.45 68.8 87.5 57.2 91.15
L 57.25 92.65
Q 57.4 94.5 58.15 96.1 60.45 101.35 67.3 102.55 77.55 104.4 86 100.45 89.25 98.9 90.15 97.3 91.05 95.7 88.7 95.1 Z"/>
</g>

<g id="Layer0_0_MEMBER_0_MEMBER_5_FILL">
<path fill="#846358" stroke="none" d="
M 29.4 53.35
Q 28.8 53.35 28.6 53.7 28.45 54.05 28.8 54.65 29.5 55.7 31.2 56.6 33.4 57.75 36 57.75 38.65 57.75 40.85 56.6 42.55 55.7 43.25 54.65 43.6 54.1 43.45 53.7 43.3 53.35 42.7 53.35
L 29.4 53.35 Z"/>
</g>

<g id="Layer0_0_MEMBER_0_MEMBER_6_FILL">
<path fill="#99674F" stroke="none" d="
M 57.55 85.65
Q 54.95 85.65 51.85 84.8 51.25 84.6 50.95 85.05 50.7 85.45 50.95 85.9 51.6 87 53.2 88.05 55.25 89.3 57.55 89.3 59.85 89.3 61.9 88.05 63.5 87 64.15 85.9 64.4 85.45 64.15 85.05 63.9 84.65 63.25 84.8 60.15 85.65 57.55 85.65 Z"/>
</g>

<g id="Layer0_0_MEMBER_0_MEMBER_7_FILL">
<path fill="#444444" stroke="none" d="
M 38.65 66
Q 36.35 66 34.75 67.95 33.15 69.85 33.15 72.6 33.15 75.3 34.75 77.25 36.35 79.15 38.65 79.15 40.9 79.15 42.5 77.25 44.1 75.3 44.1 72.6 44.1 69.85 42.5 67.9 40.9 65.95 38.65 66 Z"/>
</g>

<g id="Layer0_0_MEMBER_0_MEMBER_8_FILL">
<path fill="#444444" stroke="none" d="
M 72.6 67.9
Q 71 69.85 71 72.6 71 75.3 72.6 77.25 74.2 79.15 76.5 79.15 78.75 79.15 80.35 77.25 81.95 75.3 81.95 72.6 81.95 69.85 80.35 67.95 78.75 66 76.5 66 74.2 65.95 72.6 67.9 Z"/>
</g>

<g id="Layer0_0_MEMBER_0_MEMBER_9_FILL">
<path fill="#6D4C41" stroke="none" d="
M 61.95 22.55
Q 61.95 22.2 61.95 21.8 61.55 15.9 56.55 11.55 49.75 5.55 36.55 5.35
L 35.55 5.35
Q 22.3 5.55 15.55 11.55 10.5 15.9 10.2 21.8 10.15 22.2 10.15 22.55
L 10.15 36.35
Q 10.5 36.05 11.05 35.65 11.4 35.3 11.8 35.15
L 12.3 41.65
Q 18.75 33 20.3 23.7 24.6 26.55 28.15 27.75 31.7 28.9 35.55 28.85
L 36.55 28.85
Q 42.9 28.8 48.2 28.2
L 52.05 27.8
Q 52.15 27.8 52.25 27.85
L 59.75 41.55 60.3 35.25
Q 60.65 35.3 61.05 35.6 61.65 36.05 61.95 36.35
L 61.95 22.55 Z"/>
</g>
</defs>

<g id="Layer_1">
<g transform="matrix( 0.53289794921875, 0, 0, 0.53289794921875, 1.9,-0.7) ">
<use xlink:href="#Layer0_0_MEMBER_0_MEMBER_0_MEMBER_0_FILL"/>
</g>

<g transform="matrix( 0.53289794921875, 0, 0, 0.53289794921875, 1.9,-0.7) ">
<use xlink:href="#Layer0_0_MEMBER_0_MEMBER_0_MEMBER_1_FILL"/>
</g>

<g transform="matrix( 1, 0, 0, 1, 0,0) ">
<use xlink:href="#Layer0_0_MEMBER_0_MEMBER_1_FILL"/>
</g>

<g transform="matrix( 1, 0, 0, 1, 0,0) ">
<use xlink:href="#Layer0_0_MEMBER_0_MEMBER_2_FILL"/>
</g>

<g transform="matrix( 1.014251708984375, 0, 0, 1, 3.2,0) ">
<use xlink:href="#Layer0_0_MEMBER_0_MEMBER_3_MEMBER_0_FILL"/>
</g>

<g transform="matrix( -1.014251708984375, 0, 0, 1, 68.8,0) ">
<use xlink:href="#Layer0_0_MEMBER_0_MEMBER_3_MEMBER_1_FILL"/>
</g>

<g transform="matrix( 0.5624847412109375, 0, 0, 0.5624847412109375, 3.65,0) ">
<use xlink:href="#Layer0_0_MEMBER_0_MEMBER_4_MEMBER_0_FILL"/>
</g>

<g transform="matrix( 0.5624847412109375, 0, 0, 0.5624847412109375, 3.65,0) ">
<use xlink:href="#Layer0_0_MEMBER_0_MEMBER_4_MEMBER_1_FILL"/>
</g>

<g transform="matrix( 1, 0, 0, 1, 0,0) ">
<use xlink:href="#Layer0_0_MEMBER_0_MEMBER_5_FILL"/>
</g>

<g transform="matrix( 0.5625, 0, 0, 0.5625, 3.65,0) ">
<use xlink:href="#Layer0_0_MEMBER_0_MEMBER_6_FILL"/>
</g>

<g transform="matrix( 0.5625, 0, 0, 0.5625, 3.65,0) ">
<use xlink:href="#Layer0_0_MEMBER_0_MEMBER_7_FILL"/>
</g>

<g transform="matrix( 0.5625, 0, 0, 0.5625, 3.65,0) ">
<use xlink:href="#Layer0_0_MEMBER_0_MEMBER_8_FILL"/>
</g>

<g transform="matrix( 1, 0, 0, 1, 0,0) ">
<use xlink:href="#Layer0_0_MEMBER_0_MEMBER_9_FILL"/>
</g>
</g>
</svg>
